archdroid-icon-theme/Archdroid-Indigo/actions/scalable/package-install.svg

<?xml version="1.0" encoding="UTF-8" standalone="no"?>
<svg
   xmlns:dc="http://purl.org/dc/elements/1.1/"
   xmlns:cc="http://creativecommons.org/ns#"
   xmlns:rdf="http://www.w3.org/1999/02/22-rdf-syntax-ns#"
   xmlns:svg="http://www.w3.org/2000/svg"
   xmlns="http://www.w3.org/2000/svg"
   xmlns:sodipodi="http://sodipodi.sourceforge.net/DTD/sodipodi-0.dtd"
   xmlns:inkscape="http://www.inkscape.org/namespaces/inkscape"
   fill="#3F51B5"
   width="48"
   height="48"
   viewBox="0 0 48 48"
   id="svg2"
   version="1.1"
   inkscape:version="0.91 r13725"
   sodipodi:docname="package-install.svg">
  <metadata
     id="metadata10">
    <rdf:RDF>
      <cc:Work
         rdf:about="">
        <dc:format>image/svg+xml</dc:format>
        <dc:type
           rdf:resource="http://purl.org/dc/dcmitype/StillImage" />
        <dc:title></dc:title>
      </cc:Work>
    </rdf:RDF>
  </metadata>
  <defs
     id="defs8" />
  <sodipodi:namedview
     pagecolor="#ffffff"
     bordercolor="#666666"
     borderopacity="1"
     objecttolerance="10"
     gridtolerance="10"
     guidetolerance="10"
     inkscape:pageopacity="0"
     inkscape:pageshadow="2"
     inkscape:window-width="1366"
     inkscape:window-height="713"
     id="namedview6"
     showgrid="false"
     inkscape:snap-bbox="true"
     inkscape:bbox-nodes="true"
     inkscape:zoom="5.368001304915684"
     inkscape:cx="33.64998176056913"
     inkscape:cy="38.39694596067206"
     inkscape:window-x="0"
     inkscape:window-y="30"
     inkscape:window-maximized="1"
     inkscape:current-layer="svg2" />
  <path
     id="path4153"
     style="fill:#3F51B5"
     d="M 20.57142857142857,32.92714285714286 12,24.35571428571428 14.42571428571429,21.93 20.57142857142857,28.07571428571428 33.57428571428572,15.07285714285715 36,17.49857142857143 20.57142857142857,32.92714285714286 Z M 38,10 38,38 10,38 10,10 38,10 M 38,6 10,6 C 7.79,6 6,7.79 6,10 l 0,28 c 0,2.21 1.79,4 4,4 l 28,0 c 2.21,0 4,-1.79 4,-4 L 42,10 C 42,7.79 40.21,6 38,6 Z" />
</svg>

<svg xmlns="http://www.w3.org/2000/svg" fill="#3F51B5" viewBox="0 0 48 48"><path d="m20.571 32.927l-8.571-8.571 2.426-2.426 6.146 6.146 13-13 2.426 2.426-15.429 15.429m17.429-22.927v28h-28v-28h28m0-4h-28c-2.21 0-4 1.79-4 4v28c0 2.21 1.79 4 4 4h28c2.21 0 4-1.79 4-4v-28c0-2.21-1.79-4-4-4"/></svg>
